X: 25450
T: Marcha Processional Du Corpus De Pontevedra
R: waltz
M: 3/4
K: Dmajor
|:cd dc de|c2 cA ce|B2 BA Bf|ed cB A2|
cd dc de|c2 cA ce|B2 BA Be|Ae A4:|
e|:a2 ec Ae|a2 ec Ac|ed dB Be|fe ec Ae|
a2 ec Ae|a2 ec Ac|ed dB Be|Ae A4:|

